dist/assets/group-773.svg

<svg width="40" height="78" viewBox="0 0 40 78" fill="none" xmlns="http://www.w3.org/2000/svg">
<ellipse cx="19.8396" cy="38.8756" rx="19.1577" ry="38.8041" transform="rotate(-179.961 19.8396 38.8756)" fill="url(#paint0_linear_243_242)"/>
<path d="M10.192 51.0753C9.81447 49.7475 9.86626 48.1667 10.3276 46.9503L20.4576 20.2299C20.8754 19.1281 21.5624 18.5666 22.2643 18.8401C22.9517 19.1084 23.4962 20.1239 23.6845 21.4895L25.1734 32.2765L25.3285 33.3985L25.7297 34.233L29.5878 42.2531C30.0763 43.268 30.2368 44.7321 30.0066 46.0719C29.7788 47.3964 29.209 48.3572 28.5072 48.543L12.0209 52.9059C11.2702 53.1049 10.5695 52.403 10.192 51.0753Z" fill="white"/>
<path d="M25.1735 32.2766L23.6846 21.4895C23.4963 20.124 22.9518 19.1085 22.2644 18.8401C21.5625 18.5666 20.8754 19.1281 20.4577 20.23L10.3277 46.9504C9.86636 48.1668 9.81456 49.7475 10.1921 51.0753L25.3285 33.3986L25.1735 32.2766Z" fill="white"/>
<path d="M19.1694 40.5913C19.0159 40.0513 19.1074 39.3606 19.3745 39.0487L25.1734 32.2766L25.3284 33.3986L25.7296 34.2332L19.9308 41.0052C19.6637 41.317 19.3229 41.1312 19.1694 40.5913Z" fill="url(#paint1_linear_243_242)"/>
<path d="M25.1735 32.2766L19.3747 39.0487C19.1076 39.3606 19.016 40.0512 19.1696 40.5913L25.3286 33.3986L25.1735 32.2766Z" fill="url(#paint2_linear_243_242)"/>
<defs>
<linearGradient id="paint0_linear_243_242" x1="27.8566" y1="2.24897" x2="-19.6444" y2="61.3402" gradientUnits="userSpaceOnUse">
<stop stop-color="#747DEF"/>
<stop offset="1" stop-color="#5E3BE1"/>
</linearGradient>
<linearGradient id="paint1_linear_243_242" x1="21.2585" y1="39.3815" x2="19.6807" y2="37.8175" gradientUnits="userSpaceOnUse">
<stop stop-color="#747DEF"/>
<stop offset="1" stop-color="#5E3BE1"/>
</linearGradient>
<linearGradient id="paint2_linear_243_242" x1="20.9884" y1="38.4307" x2="20.1886" y2="37.6949" gradientUnits="userSpaceOnUse">
<stop stop-color="#747DEF"/>
<stop offset="1" stop-color="#5E3BE1"/>
</linearGradient>
</defs>
</svg>

<svg width="40" height="78" fill="none" xmlns="http://www.w3.org/2000/svg"><ellipse cx="19.84" cy="38.876" rx="19.158" ry="38.804" transform="rotate(-179.961 19.84 38.876)" fill="url(#paint0_linear_243_242)"/><path d="M10.192 51.075c-.378-1.328-.326-2.908.136-4.125l10.13-26.72c.417-1.102 1.104-1.663 1.806-1.39.688.268 1.232 1.284 1.42 2.65l1.49 10.787.154 1.121.402.835 3.858 8.02c.488 1.015.649 2.48.419 3.819-.228 1.324-.798 2.285-1.5 2.471l-16.486 4.363c-.75.199-1.452-.503-1.829-1.83z" fill="#fff"/><path d="M25.174 32.277l-1.49-10.788c-.188-1.365-.732-2.38-1.42-2.649-.701-.273-1.389.288-1.806 1.39l-10.13 26.72c-.462 1.217-.513 2.797-.136 4.125L25.328 33.4l-.154-1.122z" fill="#fff"/><path d="M19.17 40.591c-.154-.54-.063-1.23.204-1.542l5.8-6.772.154 1.122.402.834-5.8 6.772c-.266.312-.607.126-.76-.414z" fill="url(#paint1_linear_243_242)"/><path d="M25.174 32.277l-5.8 6.772c-.266.312-.358 1.002-.204 1.542l6.159-7.192-.155-1.122z" fill="url(#paint2_linear_243_242)"/><defs><linearGradient id="paint0_linear_243_242" x1="27.857" y1="2.249" x2="-19.644" y2="61.34" gradientUnits="userSpaceOnUse"><stop stop-color="#747DEF"/><stop offset="1" stop-color="#5E3BE1"/></linearGradient><linearGradient id="paint1_linear_243_242" x1="21.259" y1="39.382" x2="19.681" y2="37.818" gradientUnits="userSpaceOnUse"><stop stop-color="#747DEF"/><stop offset="1" stop-color="#5E3BE1"/></linearGradient><linearGradient id="paint2_linear_243_242" x1="20.988" y1="38.431" x2="20.189" y2="37.695" gradientUnits="userSpaceOnUse"><stop stop-color="#747DEF"/><stop offset="1" stop-color="#5E3BE1"/></linearGradient></defs></svg>
